svgs/duotone/sidebar.svg

<svg xmlns="http://www.w3.org/2000/svg" viewBox="0 0 512 512"><!--! Font Awesome Pro 6.0.0-alpha3 by @fontawesome - https://fontawesome.com License - https://fontawesome.com/license (Commercial License) --><defs><style>.fa-secondary{opacity:.4}</style></defs><path class="fa-primary" d="M64 32C28.65 32 0 60.65 0 96v320c0 35.35 28.65 64 64 64h160V32H64zM136 336h-48C74.75 336 64 325.3 64 312C64 298.7 74.75 288 88 288h48C149.3 288 160 298.7 160 312C160 325.3 149.3 336 136 336zM136 240h-48C74.75 240 64 229.3 64 216C64 202.7 74.75 192 88 192h48C149.3 192 160 202.7 160 216C160 229.3 149.3 240 136 240zM136 144h-48C74.75 144 64 133.3 64 120C64 106.7 74.75 96 88 96h48C149.3 96 160 106.7 160 120C160 133.3 149.3 144 136 144z"/><path class="fa-secondary" d="M512 96v320c0 35.35-28.65 64-64 64H224V32h224C483.3 32 512 60.65 512 96z"/></svg>

<svg xmlns="http://www.w3.org/2000/svg" viewBox="0 0 512 512"><!--! Font Awesome Pro 6.4.2 by @fontawesome - https://fontawesome.com License - https://fontawesome.com/license (Commercial License) Copyright 2023 Fonticons, Inc. --><defs><style>.fa-secondary{opacity:.4}</style></defs><path class="fa-primary" d="M64 32C28.7 32 0 60.7 0 96V416c0 35.3 28.7 64 64 64H224V32H64zM88 96h48c13.3 0 24 10.7 24 24s-10.7 24-24 24H88c-13.3 0-24-10.7-24-24s10.7-24 24-24zM64 216c0-13.3 10.7-24 24-24h48c13.3 0 24 10.7 24 24s-10.7 24-24 24H88c-13.3 0-24-10.7-24-24zm24 72h48c13.3 0 24 10.7 24 24s-10.7 24-24 24H88c-13.3 0-24-10.7-24-24s10.7-24 24-24z"/><path class="fa-secondary" d="M512 96c0-35.3-28.7-64-64-64H224V480H448c35.3 0 64-28.7 64-64V96z"/></svg>
